X: 13879
T: Fox In The Thatch, The
R: jig
M: 6/8
K: Gmajor
g2|:dBG AGE|D3 GED|GAB dBA|Bee ege|
dBG AGE|D3 GED|GAB dBA|BGF G2 e:|
|:ded dB/c/d|efe e2d|e3 b2g|aba aef|
g2e dBA|B3 GED|GAB dBA|BGF G2:|

